svgs/taginfo.svg

<svg width="192" height="192" viewBox="0 0 192 192" fill="none" xmlns="http://www.w3.org/2000/svg">
<path d="M130.015 65.2368V56.7826C130.015 52.713 128.003 48.9112 124.652 46.646L91.2402 24.0649C87.1666 21.3117 81.8482 21.3117 77.7745 24.0649L44.3631 46.646C41.0115 48.9112 39 52.713 39 56.7826V157.798C39 164.537 44.4156 170 51.096 170H117.919C124.599 170 130.015 164.537 130.015 157.798V155.034M132.062 126.743C136.273 121.832 138.636 115.292 138.153 108.287C137.187 94.2782 125.201 83.7157 111.382 84.6953C97.5636 85.6749 87.1447 97.8256 88.111 111.835C89.0773 125.844 101.063 136.406 114.882 135.427C121.791 134.937 127.85 131.654 132.062 126.743ZM132.062 126.743L165 155.77" stroke="#000" stroke-width="12" stroke-linecap="round" stroke-linejoin="round"/>
</svg>

<svg xmlns="http://www.w3.org/2000/svg" width="192" height="192" fill="none"><path stroke="#000" stroke-linecap="round" stroke-linejoin="round" stroke-width="12" d="M130.015 65.237v-8.454c0-4.07-2.012-7.872-5.363-10.137L91.24 24.065a12.01 12.01 0 0 0-13.465 0L44.363 46.646A12.23 12.23 0 0 0 39 56.783v101.015C39 164.537 44.416 170 51.096 170h66.823c6.68 0 12.096-5.463 12.096-12.202v-2.764m2.047-28.291a25.57 25.57 0 0 0 6.091-18.456c-.966-14.009-12.952-24.571-26.771-23.592-13.818.98-24.237 13.13-23.271 27.14s12.952 24.571 26.771 23.592c6.909-.49 12.968-3.773 17.18-8.684m0 0L165 155.77"/></svg>
